X: 150486
T: Old Fashioned Habit
S: "Treoir" 
Z: B.Black
M: 4/4
L: 1/8
R: reel
K: Dmix
dc |: A2 AG FGAB | cBcG EFGB | (3AAA AD FGAc |\
d2 eg fddc |
(3AAA AG FGAB | cBcG ECEG | (3AAA AD FGAB |\
d2 eg fd d2 :|
d2 fd adfd|^cdef gage |d2 fd adfd|^cdeg fddA |
d2 fd adfd|^cdef gage |abag fged|^cdeg fd d2 :|
